X:4212
T:Minuet 1
O:england
R:Minuet
M:3/4
L:1/8
K:G
B2 cB AG | A2 D2 G2 | B2 GA Bc | A4 D2 | \
d2 cB AG | g2 fe dc | B2 c2 A2 | G6 :|
|:B2 cB AG | A2 d4 | B2 cB AG | A6 |\
d2 =fe dc | B2 g4 | d2 cB AF | G6:|


